!! 00000] TT[WS
!!!OTL: Yao sanbai
!!!ARE: Asia, China, Shanxi Lishan
!! Ethnic Group: Han
!! WI, 129 (2)
!!!SCT: J0155
!!!YEM: Copyright 1995, estate of Helmut Schaffrath.
**kern
*ICvox
*Ivox
!! Mixed meters:  2/8; 3/8
*M3/8
*k[f#]
*G:
{8a
8b
8a
=1
8a
16g
16f#
8e
=2
8a
8a
16a
16b
=3
4.a
=4
8a
16g
16f#
8e
=5
4.d}
=6
{8e
8a
8g
=7
8a
16b
16a
8g
=8
*M2/8
16e
16d
8c
=9
*M3/8
4d
8g
=10
8e
8d
16c
16B
=11
4.A}
==
!!!AGN: Xiaodiao. Qingge
!!!ONB: ESAC (Essen Associative Code) Database: CHINA
!!!AMT: irregular
!!!AIN: vox
!!!EED: Helmut Schaffrath
!!!EEV: 1.0
*-
